Newaita-dark/apps/64/accessories-notes.svg

<svg height="64pt" viewBox="0 0 64 64" width="64pt" xmlns="http://www.w3.org/2000/svg" xmlns:xlink="http://www.w3.org/1999/xlink"><linearGradient id="a" gradientUnits="userSpaceOnUse" x1="31.75304" x2="31.75304" y1="56.067872" y2="58.71396000006"><stop offset="0" stop-opacity=".27451"/><stop offset="1" stop-opacity="0"/></linearGradient><linearGradient id="b"><stop offset="0" stop-opacity=".313726"/><stop offset=".222222" stop-opacity=".27451"/><stop offset="1" stop-opacity="0"/></linearGradient><radialGradient id="c" cx="450.908936" cy="189.579361" gradientTransform="matrix(.00000035 -.156265 -.281277 -.0000002 100.292171 127.190665)" gradientUnits="userSpaceOnUse" r="21.166656" xlink:href="#b"/><radialGradient id="d" cx="450.908936" cy="189.579361" gradientTransform="matrix(-.00000035 .156265 .281277 .0000002 -36.786098 -15.054961)" gradientUnits="userSpaceOnUse" r="21.166656" xlink:href="#b"/><radialGradient id="e" cx="450.908936" cy="189.579361" gradientTransform="matrix(-.00000035 -.156265 .281277 -.0000002 -36.786098 127.190665)" gradientUnits="userSpaceOnUse" r="21.166656" xlink:href="#b"/><radialGradient id="f" cx="450.908936" cy="189.579361" gradientTransform="matrix(.00000035 .156265 -.281277 .0000002 100.292167 -15.054959)" gradientUnits="userSpaceOnUse" r="21.166656" xlink:href="#b"/><linearGradient id="g"><stop offset="0" stop-color="#ffcc80"/><stop offset="1" stop-color="#ffb74d"/></linearGradient><linearGradient id="h" gradientTransform="matrix(.150699 0 0 .434824 -11.708026 67.282696)" gradientUnits="userSpaceOnUse" x1="323.513245" x2="323.513245" xlink:href="#g" y1="-141.414581" y2="-25.791676"/><linearGradient id="i" gradientUnits="userSpaceOnUse" x1="285.75" x2="285.75" xlink:href="#g" y1="-31.083334" y2="-84"/><linearGradient id="j" gradientUnits="userSpaceOnUse" x1="960" x2="960" y1="1695.118164" y2="175.118134"><stop offset="0" stop-color="#424242"/><stop offset="1" stop-color="#616161"/></linearGradient><path d="m15.875 56.066406h31.753906v2.648438h-31.753906zm0 0" fill="url(#a)"/><path d="m47.628906 56.066406h5.292969v-2.644531h-5.292969zm0 0" fill="url(#c)"/><path d="m15.875 56.066406h-5.289062v2.648438h5.289062zm0 0" fill="url(#d)"/><path d="m15.875 56.066406h-5.289062v-2.644531h5.289062zm0 0" fill="url(#e)"/><path d="m47.628906 56.066406h5.292969v2.648438h-5.292969zm0 0" fill="url(#f)"/><path d="m13.230469 5.792969h37.046875c1.460937 0 2.644531 1.183593 2.644531 2.644531v44.984375c0 1.460937-1.183594 2.644531-2.644531 2.644531h-37.046875c-1.460938 0-2.644531-1.183594-2.644531-2.644531v-44.984375c0-1.460938 1.183593-2.644531 2.644531-2.644531zm0 0" fill="url(#h)"/><path d="m10.585938 17.699219 2.644531 3.96875 1.324219-1.324219 2.644531 2.648438 2.644531-2.648438 1.324219 1.324219 1.324219-1.324219 2.644531 2.648438 2.648437-2.648438 1.320313 1.324219 1.324219-1.324219 1.324218 1.324219 1.320313-1.324219 2.648437 3.972656 2.644532-2.648437 1.324218 1.324219 2.644532-2.648438 1.324218 1.324219 2.644532-2.644531 1.324218 2.644531 1.324219-1.324219 1.324219 2.648438 2.644531-3.96875v-1.324219zm0 0" fill-opacity=".235294"/><path d="m84.679414-84.012509 21.154229 31.746969 10.592739-10.561492 21.15423 21.15423 21.15423-21.15423 10.592738 10.561492 10.592738-10.561492 21.15423 21.15423 21.185477-21.15423 10.561492 10.561492 10.592738-10.561492 10.592739 10.561492 10.561491-10.561492 21.185477 31.746969 21.15423-21.185477 10.592738 10.592738 21.15423-21.15423 10.592738 10.561492 21.15423-21.15423 10.592739 21.15423 10.592738-10.561492 10.592739 21.15423 21.15423-31.746968v-10.592739zm0 0" fill="url(#i)" stroke="#212121" stroke-width="3" transform="matrix(.125012 0 0 .125012 0 26.877566)"/><path d="m13.230469 7.117188c-1.464844 0-2.644531 1.179687-2.644531 2.644531v7.9375h42.335937v-7.9375c0-1.464844-1.179687-2.644531-2.644531-2.644531zm0 0" fill-opacity=".235294"/><path d="m400.001193 175.140764c-44.287112 0-79.952999 35.665888-79.952999 79.952999v239.977096h1279.956578v-239.977096c0-44.287111-35.665888-79.952999-79.952999-79.952999zm0 0" fill="url(#j)" stroke="#212121" stroke-linecap="round" stroke-linejoin="round" stroke-width="11.338583" transform="scale(.0330761)"/><path d="m13.230469 55.917969c-1.464844 0-2.644531-1.179688-2.644531-2.644531v-.332032c0 1.464844 1.179687 2.644532 2.644531 2.644532h37.046875c1.464844 0 2.644531-1.179688 2.644531-2.644532v.332032c0 1.464843-1.179687 2.644531-2.644531 2.644531zm0 0" fill-opacity=".196078"/><path d="m13.230469 5.941406c-1.464844 0-2.644531 1.179688-2.644531 2.644532v.332031c0-1.464844 1.179687-2.648438 2.644531-2.644531h37.046875c1.464844-.003907 2.644531 1.179687 2.644531 2.644531v-.332031c0-1.464844-1.179687-2.644532-2.644531-2.644532zm0 0" fill="#fff" fill-opacity=".392157"/><path d="m13.230469 5.605469c-1.566407 0-2.832031 1.265625-2.832031 2.832031v44.984375c0 1.566406 1.265624 2.832031 2.832031 2.832031h37.046875c1.566406 0 2.832031-1.265625 2.832031-2.832031v-44.984375c0-1.566406-1.265625-2.832031-2.832031-2.832031zm0 .375h37.046875c1.363281 0 2.457031 1.09375 2.457031 2.457031v44.984375c0 1.367187-1.09375 2.457031-2.457031 2.457031h-37.046875c-1.367188 0-2.457031-1.089844-2.457031-2.457031v-44.984375c0-1.363281 1.089843-2.457031 2.457031-2.457031zm0 0" fill="#212121"/></svg>

<?xml version="1.0" encoding="UTF-8"?>
<svg xmlns="http://www.w3.org/2000/svg" xmlns:xlink="http://www.w3.org/1999/xlink" width="64pt" height="64pt" viewBox="0 0 64 64" version="1.1">
<defs>
<linearGradient id="linear0" gradientUnits="userSpaceOnUse" x1="254" y1="233.5" x2="254" y2="254.666672" gradientTransform="matrix(0.125012,0,0,0.125012,-0.00000763012,26.87757)">
<stop offset="0" style="stop-color:rgb(0%,0%,0%);stop-opacity:0.27451;"/>
<stop offset="1" style="stop-color:rgb(0%,0%,0%);stop-opacity:0;"/>
</linearGradient>
<radialGradient id="radial0" gradientUnits="userSpaceOnUse" cx="450.908936" cy="189.579361" fx="450.908936" fy="189.579361" r="21.166656" gradientTransform="matrix(0.000000348341,-0.156265,-0.281277,-0.000000203077,100.292171,127.190665)">
<stop offset="0" style="stop-color:rgb(0%,0%,0%);stop-opacity:0.313726;"/>
<stop offset="0.222222" style="stop-color:rgb(0%,0%,0%);stop-opacity:0.27451;"/>
<stop offset="1" style="stop-color:rgb(0%,0%,0%);stop-opacity:0;"/>
</radialGradient>
<radialGradient id="radial1" gradientUnits="userSpaceOnUse" cx="450.908936" cy="189.579361" fx="450.908936" fy="189.579361" r="21.166656" gradientTransform="matrix(-0.000000348341,0.156265,0.281277,0.000000203077,-36.786098,-15.054961)">
<stop offset="0" style="stop-color:rgb(0%,0%,0%);stop-opacity:0.313726;"/>
<stop offset="0.222222" style="stop-color:rgb(0%,0%,0%);stop-opacity:0.27451;"/>
<stop offset="1" style="stop-color:rgb(0%,0%,0%);stop-opacity:0;"/>
</radialGradient>
<radialGradient id="radial2" gradientUnits="userSpaceOnUse" cx="450.908936" cy="189.579361" fx="450.908936" fy="189.579361" r="21.166656" gradientTransform="matrix(-0.000000348341,-0.156265,0.281277,-0.000000203077,-36.786098,127.190665)">
<stop offset="0" style="stop-color:rgb(0%,0%,0%);stop-opacity:0.313726;"/>
<stop offset="0.222222" style="stop-color:rgb(0%,0%,0%);stop-opacity:0.27451;"/>
<stop offset="1" style="stop-color:rgb(0%,0%,0%);stop-opacity:0;"/>
</radialGradient>
<radialGradient id="radial3" gradientUnits="userSpaceOnUse" cx="450.908936" cy="189.579361" fx="450.908936" fy="189.579361" r="21.166656" gradientTransform="matrix(0.000000348341,0.156265,-0.281277,0.000000203077,100.292167,-15.054959)">
<stop offset="0" style="stop-color:rgb(0%,0%,0%);stop-opacity:0.313726;"/>
<stop offset="0.222222" style="stop-color:rgb(0%,0%,0%);stop-opacity:0.27451;"/>
<stop offset="1" style="stop-color:rgb(0%,0%,0%);stop-opacity:0;"/>
</radialGradient>
<linearGradient id="linear1" gradientUnits="userSpaceOnUse" x1="323.513245" y1="-141.414581" x2="323.513245" y2="-25.791676" gradientTransform="matrix(0.150699,0,0,0.434824,-11.708026,67.282696)">
<stop offset="0" style="stop-color:rgb(100%,80.000001%,50.196081%);stop-opacity:1;"/>
<stop offset="1" style="stop-color:rgb(100%,71.764708%,30.19608%);stop-opacity:1;"/>
</linearGradient>
<linearGradient id="linear2" gradientUnits="userSpaceOnUse" x1="285.75" y1="-31.083334" x2="285.75" y2="-84" >
<stop offset="0" style="stop-color:rgb(100%,80.000001%,50.196081%);stop-opacity:1;"/>
<stop offset="1" style="stop-color:rgb(100%,71.764708%,30.19608%);stop-opacity:1;"/>
</linearGradient>
<linearGradient id="linear3" gradientUnits="userSpaceOnUse" x1="960" y1="1695.118164" x2="960" y2="175.118134" gradientTransform="matrix(1,0,0,1,0,0)">
<stop offset="0" style="stop-color:rgb(25.882354%,25.882354%,25.882354%);stop-opacity:1;"/>
<stop offset="1" style="stop-color:rgb(38.039216%,38.039216%,38.039216%);stop-opacity:1;"/>
</linearGradient>
</defs>
<g id="surface1">
<path style=" stroke:none;fill-rule:nonzero;fill:url(#linear0);" d="M 15.875 56.066406 L 47.628906 56.066406 L 47.628906 58.714844 L 15.875 58.714844 Z M 15.875 56.066406 "/>
<path style=" stroke:none;fill-rule:nonzero;fill:url(#radial0);" d="M 47.628906 56.066406 L 52.921875 56.066406 L 52.921875 53.421875 L 47.628906 53.421875 Z M 47.628906 56.066406 "/>
<path style=" stroke:none;fill-rule:nonzero;fill:url(#radial1);" d="M 15.875 56.066406 L 10.585938 56.066406 L 10.585938 58.714844 L 15.875 58.714844 Z M 15.875 56.066406 "/>
<path style=" stroke:none;fill-rule:nonzero;fill:url(#radial2);" d="M 15.875 56.066406 L 10.585938 56.066406 L 10.585938 53.421875 L 15.875 53.421875 Z M 15.875 56.066406 "/>
<path style=" stroke:none;fill-rule:nonzero;fill:url(#radial3);" d="M 47.628906 56.066406 L 52.921875 56.066406 L 52.921875 58.714844 L 47.628906 58.714844 Z M 47.628906 56.066406 "/>
<path style=" stroke:none;fill-rule:nonzero;fill:url(#linear1);" d="M 13.230469 5.792969 L 50.277344 5.792969 C 51.738281 5.792969 52.921875 6.976562 52.921875 8.4375 L 52.921875 53.421875 C 52.921875 54.882812 51.738281 56.066406 50.277344 56.066406 L 13.230469 56.066406 C 11.769531 56.066406 10.585938 54.882812 10.585938 53.421875 L 10.585938 8.4375 C 10.585938 6.976562 11.769531 5.792969 13.230469 5.792969 Z M 13.230469 5.792969 "/>
<path style=" stroke:none;fill-rule:nonzero;fill:rgb(0%,0%,0%);fill-opacity:0.235294;" d="M 10.585938 17.699219 L 13.230469 21.667969 L 14.554688 20.34375 L 17.199219 22.992188 L 19.84375 20.34375 L 21.167969 21.667969 L 22.492188 20.34375 L 25.136719 22.992188 L 27.785156 20.34375 L 29.105469 21.667969 L 30.429688 20.34375 L 31.753906 21.667969 L 33.074219 20.34375 L 35.722656 24.316406 L 38.367188 21.667969 L 39.691406 22.992188 L 42.335938 20.34375 L 43.660156 21.667969 L 46.304688 19.023438 L 47.628906 21.667969 L 48.953125 20.34375 L 50.277344 22.992188 L 52.921875 19.023438 L 52.921875 17.699219 Z M 10.585938 17.699219 "/>
<path style="fill-rule:nonzero;fill:url(#linear2);stroke-width:3;stroke-linecap:butt;stroke-linejoin:miter;stroke:rgb(12.941177%,12.941177%,12.941177%);stroke-opacity:1;stroke-miterlimit:4;" d="M 84.679414 -84.012509 L 105.833643 -52.26554 L 116.426382 -62.827032 L 137.580612 -41.672802 L 158.734842 -62.827032 L 169.32758 -52.26554 L 179.920318 -62.827032 L 201.074548 -41.672802 L 222.260025 -62.827032 L 232.821517 -52.26554 L 243.414255 -62.827032 L 254.006994 -52.26554 L 264.568485 -62.827032 L 285.753962 -31.080063 L 306.908192 -52.26554 L 317.50093 -41.672802 L 338.65516 -62.827032 L 349.247898 -52.26554 L 370.402128 -73.41977 L 380.994867 -52.26554 L 391.587605 -62.827032 L 402.180344 -41.672802 L 423.334574 -73.41977 L 423.334574 -84.012509 Z M 84.679414 -84.012509 " transform="matrix(0.125012,0,0,0.125012,0,26.877566)"/>
<path style=" stroke:none;fill-rule:nonzero;fill:rgb(0%,0%,0%);fill-opacity:0.235294;" d="M 13.230469 7.117188 C 11.765625 7.117188 10.585938 8.296875 10.585938 9.761719 L 10.585938 17.699219 L 52.921875 17.699219 L 52.921875 9.761719 C 52.921875 8.296875 51.742188 7.117188 50.277344 7.117188 Z M 13.230469 7.117188 "/>
<path style="fill-rule:nonzero;fill:url(#linear3);stroke-width:11.338583;stroke-linecap:round;stroke-linejoin:round;stroke:rgb(12.941177%,12.941177%,12.941177%);stroke-opacity:1;stroke-miterlimit:4;" d="M 400.001193 175.140764 C 355.714081 175.140764 320.048194 210.806652 320.048194 255.093763 L 320.048194 495.070859 L 1600.004772 495.070859 L 1600.004772 255.093763 C 1600.004772 210.806652 1564.338884 175.140764 1520.051773 175.140764 Z M 400.001193 175.140764 " transform="matrix(0.0330761,0,0,0.0330761,0,0)"/>
<path style=" stroke:none;fill-rule:nonzero;fill:rgb(0%,0%,0%);fill-opacity:0.196078;" d="M 13.230469 55.917969 C 11.765625 55.917969 10.585938 54.738281 10.585938 53.273438 L 10.585938 52.941406 C 10.585938 54.40625 11.765625 55.585938 13.230469 55.585938 L 50.277344 55.585938 C 51.742188 55.585938 52.921875 54.40625 52.921875 52.941406 L 52.921875 53.273438 C 52.921875 54.738281 51.742188 55.917969 50.277344 55.917969 Z M 13.230469 55.917969 "/>
<path style=" stroke:none;fill-rule:nonzero;fill:rgb(100%,100%,100%);fill-opacity:0.392157;" d="M 13.230469 5.941406 C 11.765625 5.941406 10.585938 7.121094 10.585938 8.585938 L 10.585938 8.917969 C 10.585938 7.453125 11.765625 6.269531 13.230469 6.273438 L 50.277344 6.273438 C 51.742188 6.269531 52.921875 7.453125 52.921875 8.917969 L 52.921875 8.585938 C 52.921875 7.121094 51.742188 5.941406 50.277344 5.941406 Z M 13.230469 5.941406 "/>
<path style=" stroke:none;fill-rule:nonzero;fill:rgb(12.941177%,12.941177%,12.941177%);fill-opacity:1;" d="M 13.230469 5.605469 C 11.664062 5.605469 10.398438 6.871094 10.398438 8.4375 L 10.398438 53.421875 C 10.398438 54.988281 11.664062 56.253906 13.230469 56.253906 L 50.277344 56.253906 C 51.84375 56.253906 53.109375 54.988281 53.109375 53.421875 L 53.109375 8.4375 C 53.109375 6.871094 51.84375 5.605469 50.277344 5.605469 Z M 13.230469 5.980469 L 50.277344 5.980469 C 51.640625 5.980469 52.734375 7.074219 52.734375 8.4375 L 52.734375 53.421875 C 52.734375 54.789062 51.640625 55.878906 50.277344 55.878906 L 13.230469 55.878906 C 11.863281 55.878906 10.773438 54.789062 10.773438 53.421875 L 10.773438 8.4375 C 10.773438 7.074219 11.863281 5.980469 13.230469 5.980469 Z M 13.230469 5.980469 "/>
</g>
</svg>
